!!!COM: Palestrina, Giovanni Perluigi da
!!!OPR: Missa Salve regina
!!!OTL: Agnus I
**kern	**kern	**kern	**kern	**kern
*Ibass	*Itenor	*Icalto	*Icalto	*Icant
!Bassus	!Tenor	!Altus 2	!Altus 1	!Cantus
*clefF4	*clefGv2	*clefG2	*clefG2	*clefG2
*k[b-]	*k[b-]	*k[b-]	*k[b-]	*k[b-]
*G:dor	*G:dor	*G:dor	*G:dor	*G:dor
*M4/2	*M4/2	*M4/2	*M4/2	*M4/2
=1	=1	=1	=1	=1
0r	0r	0r	1d	0r
.	.	.	2f	.
.	.	.	2g	.
=2	=2	=2	=2	=2
0r	0r	2r	4d	1r
.	.	.	4e	.
.	.	2d	4f	.
.	.	.	4g	.
.	.	2f	2a	[1dd
.	.	2g	2b-	.
=3	=3	=3	=3	=3
0r	0r	4d	2a	1dd]
.	.	4e	.	.
.	.	4f	4d	.
.	.	4g	4e	.
.	.	4a	4f	1cc
.	.	4b-	4g	.
.	.	[2cc	2a	.
=4	=4	=4	=4	=4
0r	1G	2cc]	2.g	1dd
.	.	1b-	.	.
.	.	.	8f	.
.	.	.	8e	.
.	2B-	.	2d	1g
.	2c	4a	2e-	.
.	.	4g	.	.
=5	=5	=5	=5	=5
0r	4G	1b-	2d	1.dd
.	4A	.	.	.
.	4B-	.	2g	.
.	4c	.	.	.
.	4d	1a	2f	.
.	4e	.	.	.
.	2f	.	[2a	2cc
=6	=6	=6	=6	=6
0r	1g	1r	2a]	1b-
.	.	.	1g	.
.	1d	2r	.	1a
.	.	2a	2f#	.
=7	=7	=7	=7	=7
1r	1G	1b-	2g	4g
.	.	.	.	4a
.	.	.	2d	4b-
.	.	.	.	4cc
1D	1r	[1a	2.f	[1dd
.	.	.	4g	.
=8	=8	=8	=8	=8
2F	0d	2a]	2a	0dd]
2G	.	2g	2b-	.
4D	.	1f	[1a	.
4E	.	.	.	.
4F	.	.	.	.
4G	.	.	.	.
=9	=9	=9	=9	=9
4A	1c	1e	2a]	0r
4B-	.	.	.	.
1c	.	.	2g	.
.	1d	2d	[1g	.
4B-	.	2G	.	.
4A	.	.	.	.
=10	=10	=10	=10	=10
1B-	1G	1d	1g]	2r
.	.	.	.	2g
1G	[1d	1r	2r	2.b-
.	.	.	2d	.
.	.	.	.	4cc
=11	=11	=11	=11	=11
0r	2d]	1r	2f	2dd
.	2c	.	2g	2ee
.	1B-	2r	4d	2ff
.	.	.	4e	.
.	.	2d	4f	2dd
.	.	.	4g	.
=12	=12	=12	=12	=12
1r	1A	2f	4a	2.cc
.	.	.	4b-	.
.	.	2e	1cc	.
.	.	.	.	4dd
2r	1G	1g	.	2ee-
2G	.	.	[2b-	[2dd
=13	=13	=13	=13	=13
2B-	0r	2f	2b-]	2dd]
2c	.	2e	1a	2cc
4G	.	1d	.	1b-
4A	.	.	.	.
4B-	.	.	[2g	.
4c	.	.	.	.
=14	=14	=14	=14	=14
1d	0r	1r	2g]	1a
.	.	.	2f#	.
1G	.	2r	1g	2b-
.	.	[2d	.	2g
=15	=15	=15	=15	=15
1D	1F	2d]	1r	1a
.	.	2.f	.	.
1C	1G	.	2r	1cc
.	.	4e	.	.
.	.	2e	2c	.
=16	=16	=16	=16	=16
2BB-	1B-	1f	1d	0r
2B-	.	.	.	.
2B-	1c	2r	1f	.
2A	.	2c	.	.
=17	=17	=17	=17	=17
2.G	1B-	4d	1g	0r
.	.	4c	.	.
.	.	4B-	.	.
4F	.	4A	.	.
2E	2c	2G	2g	.
2D	[2d	2A	2f	.
=18	=18	=18	=18	=18
1E	2d]	1G	1g	0r
.	2c#	.	.	.
[1D	1d	1A	2f	.
.	.	.	[2a	.
=19	=19	=19	=19	=19
1D]	0r	1d	4a]	1f
.	.	.	4g	.
.	.	.	1f	.
1r	.	1c	.	1g
.	.	.	2e	.
=20	=20	=20	=20	=20
1r	0r	2B-	2d	1b-
.	.	2b-	2g	.
2r	.	2b-	1f	1cc
2F	.	2a	.	.
=21	=21	=21	=21	=21
1G	0r	2.g	2r	1b-
.	.	.	2d	.
.	.	4f	.	.
2A	.	2e	2a	2cc
2B-	.	2d	2g	[2dd
=22	=22	=22	=22	=22
1A	1r	1e	1a	2dd]
.	.	.	.	2cc#
[1D	2r	2.f	2a	1dd
.	[2f	.	[2a	.
.	.	4g	.	.
=23	=23	=23	=23	=23
2D]	2f]	0a	2a]	1r
2A	2c	.	2e	.
2.D	1d	.	1f	2r
.	.	.	.	[2ff
4E	.	.	.	.
=24	=24	=24	=24	=24
1F	1A	1r	2c	2ff]
.	.	.	2.f	2cc
1BB-	2.B-	2r	.	[1dd
.	.	.	4e	.
.	.	[2b-	4d	.
.	4c	.	4e	.
=25	=25	=25	=25	=25
0r	1d	2b-]	4f	2dd]
.	.	.	4g	.
.	.	2f	2.g	2a
.	2c	1g	.	1cc
.	.	.	4g	.
.	2e-	.	2g	.
=26	=26	=26	=26	=26
0r	0d	2a	2f#	0dd
.	.	2b-	1g	.
.	.	1a	.	.
.	.	.	2f#	.
=27	=27	=27	=27	=27
2r	1G	1g	2g	2r
1B-	.	.	1b-	1dd
.	1r	1f	.	.
2F	.	.	2a	2cc
=28	=28	=28	=28	=28
1G	1r	1d	1g	1b-
1D	2r	2.d	2f	2a
.	[2f	.	[2a	2dd
.	.	8c	.	.
.	.	8B-	.	.
=29	=29	=29	=29	=29
0F	2f]	1A	4a]	1cc
.	.	.	4g	.
.	2c	.	4f	.
.	.	.	4e	.
.	2d	1a	2.f	1r
.	2A	.	.	.
.	.	.	4e	.
=30	=30	=30	=30	=30
0G	2B	[0g	2d	0r
.	1c	.	2c	.
.	.	.	1d	.
.	2B	.	.	.
=31	=31	=31	=31	=31
1C	1c	0g]	2.e-	2r
.	.	.	.	1ee-
.	.	.	8d	.
.	.	.	8c	.
1E-	1r	.	2B-	.
.	.	.	2G	2b-
=32	=32	=32	=32	=32
1C	1e-	2r	1g	1cc
.	.	1g	.	.
[1E-	2B-	.	1r	1g
.	2c	2g	.	.
=33	=33	=33	=33	=33
2E-]	2G	2g	0r	1b-
2D	1B-	2f	.	.
1C	.	1e-	.	1cc
.	2A	.	.	.
=34	=34	=34	=34	=34
1BB-	1B-	1d	2r	[0dd
.	.	.	1b-	.
2r	2r	1B-	.	.
[2B-	[2d	.	2f	.
=35	=35	=35	=35	=35
2B-]	2d]	2G	2g	0dd]
2F	2A	2.d	1a	.
1G	1B-	.	.	.
.	.	4c	.	.
.	.	4d	2g	.
.	.	4e	.	.
=36	=36	=36	=36	=36
1D	2A	4f	1a	2r
.	.	4g	.	.
.	4F	4a	.	1ff
.	4G	4b-	.	.
[1F	4A	2a	1f	.
.	4B-	.	.	.
.	[2c	[2a	.	2cc
=37	=37	=37	=37	=37
2F]	2c]	2a]	1d	1.dd
2G	2B-	1g	.	.
1D	1A	.	[1d	.
.	.	2f#	.	2a
=38	=38	=38	=38	=38
1G	2G	[0g	2d]	2b
.	1g	.	2e-	1cc
1G	.	.	1d	.
.	2d	.	.	2b
=39	=39	=39	=39	=39
2C	2.e-	1g_	2.c	0cc
2C	.	.	.	.
.	4d	.	4d	.
1C	1c	1g_	1e-	.
=40	=40	=40	=40	=40
0G	0B	0g]	0d	0dd
==	==	==	==	==
*-	*-	*-	*-	*-
!!!CDT: 1525/^1526/-1594/2/2
!!!OCY: Italia
!!!AGN: Mass (Paraphrase)
!!!AST: renaissance, vocal
!!!ASW: Antiphon
!!!PWK: Masses, Book 11
!!!RNB: Cadence finals: D
!!!YOR: Le Opere Complete, v. 28, p. 185
!!!YOO: Rome, Italy: Fratelli Scalera
!!!END: 1992//
!!!EED: John Miller
!!!YEC: Copyright 2000, John Miller
!!!YEN: United States of America
!!!YEM: Rights to all derivative electronic formats reserved.
!!!YEM: Refer to licensing agreement for further details.
!!!YEM: This file must be accompanied by the licensing agreement.
!!!YEM: A copy of the licensing agreement may be found at http://www.music-cog.ohio-state.edu/HumdrumDatabases/Palestrina/license.txt
!!!EMD: converted to Humdrum by Bret Aarden
